X:217
T:Speed the Plough
O:No 217 Page 107 William Clarke of Feltwell
M:4/4
L:1/8
N:Add crotchet rest at end of A8.
N:Extra High C crotchet added bar B1.
N:Omit 1stD quaver from bar b5 in M.s.
K:C
ccce gage|gc'ge gage|fffd eeec|Bddc BGG2|ccce gage|gc'ge gage|f2e2d2c2|AcBdc2z2::c'c'c'c'c'2c2|c'2b2a2g2|ffff/e/  eeec|Bddc B/G/G2z|dc gcc'2c2|afda gfBd|f2e2d2c2|AcBdc2z2:|

